app/assets/img/header/logo_sp.svg

<svg id="Layer_1" data-name="Layer 1" xmlns="http://www.w3.org/2000/svg" viewBox="0 0 41.6 41.6"><defs><style>.cls-1{fill:#3498db;}</style></defs><title>logo_sp</title><path class="cls-1" d="M36.5,0h-21V14.1h.1a7.53,7.53,0,0,1,3.5-2.6,14.35,14.35,0,0,1,4.6-.8,11.25,11.25,0,0,1,4.8,1.1,11.55,11.55,0,0,1,3.6,3,13.72,13.72,0,0,1,2.3,4.3,17.53,17.53,0,0,1,.8,5.1,16,16,0,0,1-.9,5.3,13.29,13.29,0,0,1-2.5,4.1,10.54,10.54,0,0,1-3.9,2.7,12.88,12.88,0,0,1-5.1,1,7.83,7.83,0,0,1-2.6-.4A8.49,8.49,0,0,1,18,36a20.28,20.28,0,0,1-1.8-1.3A5.26,5.26,0,0,1,15,33.3h-.1v4H7.7V0H0V41.6H41.6V5A5,5,0,0,0,36.5,0Z" transform="translate(0 0)"/><path class="cls-1" d="M21.2,30.5a5.75,5.75,0,0,0,4.6-1.8,6.49,6.49,0,0,0,1.6-4.6,6.34,6.34,0,0,0-1.6-4.6,6.1,6.1,0,0,0-4.6-1.8,5.75,5.75,0,0,0-4.6,1.8A6.49,6.49,0,0,0,15,24.1a6.34,6.34,0,0,0,1.6,4.6A5.75,5.75,0,0,0,21.2,30.5Z" transform="translate(0 0)"/></svg>

<svg enable-background="new 0 0 42 42" viewBox="0 0 42 42" xmlns="http://www.w3.org/2000/svg"><g fill="#555273"><path d="m36.5 0h-21v14.1h.1c.9-1.2 2.1-2.1 3.5-2.6 1.5-.5 3-.8 4.6-.8 1.7 0 3.3.4 4.8 1.1 1.4.7 2.6 1.8 3.6 3 1 1.3 1.8 2.7 2.3 4.3s.8 3.4.8 5.1c0 1.8-.3 3.6-.9 5.3-.6 1.5-1.4 2.9-2.5 4.1s-2.4 2.1-3.9 2.7c-1.6.7-3.4 1-5.1 1-.9 0-1.7-.1-2.6-.4-.8-.2-1.5-.5-2.2-.9-.6-.4-1.2-.8-1.8-1.3-.5-.4-.9-.9-1.2-1.4h-.1v4h-7.2v-37.3h-7.7v41.6h41.6v-36.6c0-2.8-2.3-5-5.1-5z"/><path d="m21.2 30.5c1.7.1 3.4-.5 4.6-1.8 1.1-1.3 1.7-2.9 1.6-4.6.1-1.7-.5-3.4-1.6-4.6-1.2-1.2-2.9-1.9-4.6-1.8-1.7-.1-3.4.5-4.6 1.8-1.1 1.3-1.7 2.9-1.6 4.6-.1 1.7.5 3.4 1.6 4.6 1.2 1.3 2.9 1.9 4.6 1.8z"/></g></svg>
